X:1
T:Title
%%score { 1 | 2 }
L:1/8
M:3/4
K:Eb
V:1 treble nm="Grand Piano"
V:2 bass 
V:1
 z2 z[Q:1/4=100] G G>[FA] | [GB]3 [Ge] [Ad]>[Ac] | [GB]3 B c>B | F3 [Ac] [GB]>[FA] |[M:3/8] G3 | %5
 GG>[FA] |[M:3/4] [GB]3 [Ge] [Ad]>[Ac] | [GB]3 B cd | e3 B [DA]>[DF] |[M:3/8] E3 | [Ge][Ad]>[FAc] | %11
[M:3/4] [FAd]3 [DAc] [DAB]>[DAc] | [EGB]3 [Ge] d>c | d3 [Ac] [GB]>[FA] |[M:3/8] G3 | EG>B | %16
[M:3/4] [Ge]3 [Ge] [Af]>[Ge] | c3 e d>c | d3 B [DA]>[DF] |[M:3/8] E3 |] %20
V:2
 z2 z [E,B,E] [E,B,E]>[E,B,] | [E,E]3 [E,B,] [E,B,]>[E,B,] | [E,E]3 [E,G,E] [E,A,E]>[E,G,E] | %3
 [B,D]3 [B,,B,] [C,B,]>[D,B,] |[M:3/8] [E,B,E]3 | [E,B,E][E,B,E]>[E,B,] | %6
[M:3/4] [E,E]3 [E,B,] [E,B,]>[E,B,] | [E,E]3[K:treble] [G,E] [A,EA][A,B,F] | %8
 [G,B,E]3 [E,G,E] [B,,F,]>[B,,A,] |[M:3/8] [E,G,]3 | [E,B,]B,>B, |[M:3/4] B,3 B,, B,,>B,, | %12
 E,3 [E,B,][K:treble] [B,A]>[B,FA] | [B,FA]3[K:bass] [B,,B,] [C,B,]>[D,B,] |[M:3/8] [E,B,E]3 | %15
 E,G,>B, |[M:3/4] [E,B,]3 [E,B,] [E,B,]>[E,E] | [A,EA]3 [A,CA] [B,A]>[B,A] | %18
 [B,FA]3[K:bass] [B,D] [B,,F,]>[B,,A,] |[M:3/8] [E,G,]3 |] %20

